; generated by Slic3r 1.1.7 on 2014-12-20 at 11:31:52

; perimeters extrusion width = 0.40mm
; infill extrusion width = 0.67mm
; solid infill extrusion width = 0.67mm
; top infill extrusion width = 0.67mm

G21 ; set units to millimeters
M107
M190 S60 ; wait for bed temperature to be reached
M104 S212 ; set temperature
;Custom Start
G28
M109 S212 ; wait for temperature to be reached
G90 ; use absolute coordinates
G92 E0
M82 ; use absolute distances for extrusion
G1 F1800.000 E-1.00000
G92 E0
G1 Z0.400 F7800.000
G1 X54.977 Y61.295 F7800.000
G1 E1.00000 F1800.000
G1 X56.733 Y59.795 E1.29059 F1080.000
G1 X58.185 Y59.155 E1.49030
G1 X86.846 Y50.417 E5.26135
G1 X88.740 Y50.040 E5.50442
G1 X91.360 Y50.040 E5.83413
G1 X93.916 Y50.584 E6.16304
G1 X121.822 Y59.157 E9.83709 F1080.000
G1 X123.879 Y60.204 E10.12768
G1 X125.461 Y61.887 E10.41827
G1 X126.378 Y64.006 E10.70887
G1 X126.564 Y65.575 E10.90773
G1 X126.564 Y120.275 E17.79195
G1 X126.167 Y122.550 E18.08255
G1 X125.023 Y124.555 E18.37314
G1 X123.267 Y126.055 E18.66373
G1 X121.472 Y126.790 E18.90786
G1 X109.022 Y129.890 E20.52259
G1 X107.400 Y130.089 E20.72829
G1 X72.700 Y130.089 E25.09542
G1 X71.090 Y129.893 E25.29955
G1 X58.540 Y126.793 E26.92650
G1 X56.427 Y125.862 E27.21709
G1 X54.754 Y124.271 E27.50768
G1 X53.720 Y122.206 E27.79827
G1 X53.436 Y120.275 E28.04397
G1 X53.436 Y65.575 E34.92819
G1 X53.833 Y63.300 E35.21878
G1 X54.947 Y61.347 E35.50182
G1 F1800.000 E34.50182
G92 E0
G1 X106.286 Y122.261 F7800.000
G1 E1.00000 F1800.000
G1 X103.714 Y122.261 E1.32366 F540.000
G1 X103.714 Y121.489 E1.42078
G1 X106.286 Y121.489 E1.74443
G1 X106.286 Y122.201 E1.83400
G1 X107.000 Y122.975 F7800.000
G1 X103.000 Y122.975 E2.33742 F378.000
G1 X103.000 Y120.775 E2.61430
G1 X107.000 Y120.775 E3.11771
G1 X107.000 Y122.915 E3.38704
G1 X106.654 Y122.775 F7800.000
G1 F1800.000 E2.38704
G92 E0
G1 X76.386 Y122.261 F7800.000
G1 E1.00000 F1800.000
G1 X73.814 Y122.261 E1.32366 F540.000
G1 X73.814 Y121.489 E1.42078
G1 X76.386 Y121.489 E1.74443
G1 X76.386 Y122.201 E1.83400
G1 X77.100 Y122.975 F7800.000
G1 X73.100 Y122.975 E2.33742 F378.000
G1 X73.100 Y120.775 E2.61430
G1 X77.100 Y120.775 E3.11771
G1 X77.100 Y122.915 E3.38704
G1 X76.754 Y122.775 F7800.000
G1 F1800.000 E2.38704
G92 E0
G1 X90.939 Y64.311 F7800.000
G1 E1.00000 F1800.000
G1 X87.722 Y63.266 E1.42568 F540.000
G1 X87.722 Y59.884 E1.85136
G1 X90.939 Y58.839 E2.27704
G1 X92.927 Y61.575 E2.70272
G1 X90.974 Y64.263 E3.12084
G1 X90.666 Y63.472 F7800.000
G1 X88.436 Y62.747 E3.41592 F378.000
G1 X88.436 Y60.403 E3.71100
G1 X90.666 Y59.678 E4.00607
G1 X92.044 Y61.575 E4.30115
G1 X90.702 Y63.423 E4.58867
G1 X90.504 Y63.837 F7800.000
G1 X91.212 Y65.151 F7800.000
G1 X92.727 Y63.066 E4.91306 F540.000
G1 X93.122 Y63.194 E4.96530
G1 X93.122 Y67.403 E5.49507
G1 X118.022 Y67.403 E8.62884
G1 X118.022 Y118.447 E15.05286
G1 X61.978 Y118.447 E22.10614
G1 X61.978 Y67.403 E28.53016
G1 X86.878 Y67.403 E31.66393
G1 X86.878 Y63.743 E32.12461
G1 X91.155 Y65.132 E32.69053
G1 X93.836 Y66.689 F7800.000
G1 X118.736 Y66.689 E35.82429 F540.000
G1 X118.736 Y119.161 E42.42807
G1 X61.264 Y119.161 E49.66112
G1 X61.264 Y66.689 E56.26489
G1 X86.164 Y66.689 E59.39866
G1 X86.164 Y61.936 E59.99685
G1 X86.526 Y60.115 E60.23048
G1 X87.353 Y58.878 E60.41777
G1 X88.590 Y58.051 E60.60506
G1 X90.050 Y57.761 E60.79235
G1 X91.510 Y58.051 E60.97964
G1 X92.747 Y58.878 E61.16693
G1 X93.574 Y60.115 E61.35422
G1 X93.864 Y61.575 E61.54151
G1 X93.836 Y61.717 E61.55968
G1 X93.836 Y66.629 E62.17794
G1 X94.550 Y65.975 F7800.000
G1 X119.450 Y65.975 E65.31171 F378.000
G1 X119.450 Y119.875 E72.09525
G1 X60.550 Y119.875 E79.50805
G1 X60.550 Y65.975 E86.29159
G1 X85.450 Y65.975 E89.42536
G1 X85.450 Y61.866 E89.94252
G1 X85.854 Y59.837 E90.20288
G1 X86.838 Y58.363 E90.42592
G1 X88.312 Y57.379 E90.64897
G1 X90.050 Y57.033 E90.87202
G1 X91.788 Y57.379 E91.09506
G1 X93.262 Y58.363 E91.31811
G1 X94.246 Y59.837 E91.54116
G1 X94.592 Y61.575 E91.76420
G1 X94.550 Y61.787 E91.79140
G1 X94.550 Y65.915 E92.31093
G1 X94.550 Y66.375 F7800.000
G1 X92.540 Y64.368 F7800.000
G1 X92.624 Y64.452 E92.32595 F576.000
G1 X92.624 Y65.472 E92.45426
G1 X92.027 Y64.875 E92.56043
G1 X91.598 Y65.466 E92.65229
G1 X92.624 Y66.491 E92.83481
G1 X92.624 Y67.511 E92.96313
G1 X90.583 Y65.470 E93.32636
G1 X89.073 Y64.979 E93.52622
G1 X117.524 Y93.430 E98.59007
G1 X117.524 Y92.411 E98.71839
G1 X93.014 Y67.901 E103.08074
G1 X94.034 Y67.901 E103.20905
G1 X117.524 Y91.391 E107.38993
G1 X117.524 Y90.372 E107.51825
G1 X95.053 Y67.901 E111.51766
G1 X96.073 Y67.901 E111.64598
G1 X117.524 Y89.352 E115.46392
G1 X117.524 Y88.332 E115.59224
G1 X97.093 Y67.901 E119.22871
G1 X98.112 Y67.901 E119.35703
G1 X117.524 Y87.313 E122.81204
G1 X117.524 Y86.293 E122.94035
G1 X99.132 Y67.901 E126.21389
G1 X100.151 Y67.901 E126.34221
G1 X117.524 Y85.274 E129.43428
G1 X117.524 Y84.254 E129.56260
G1 X101.171 Y67.901 E132.47320
G1 X102.190 Y67.901 E132.60152
G1 X117.524 Y83.235 E135.33066
G1 X117.524 Y82.215 E135.45897
G1 X103.210 Y67.901 E138.00664
G1 X104.230 Y67.901 E138.13496
G1 X117.524 Y81.195 E140.50116
G1 X117.524 Y80.176 E140.62948
G1 X105.249 Y67.901 E142.81421
G1 X106.269 Y67.901 E142.94253
G1 X117.524 Y79.156 E144.94579
G1 X117.524 Y78.137 E145.07411
G1 X107.288 Y67.901 E146.89591
G1 X108.308 Y67.901 E147.02423
G1 X117.524 Y77.117 E148.66456
G1 X117.524 Y76.098 E148.79287
G1 X109.327 Y67.901 E150.25173
G1 X110.347 Y67.901 E150.38005
G1 X117.524 Y75.078 E151.65745
G1 X117.524 Y74.058 E151.78576
G1 X111.367 Y67.901 E152.88169
G1 X112.386 Y67.901 E153.01001
G1 X117.524 Y73.039 E153.92446
G1 X117.524 Y72.019 E154.05278
G1 X113.406 Y67.901 E154.78577
G1 X114.425 Y67.901 E154.91409
G1 X117.524 Y71.000 E155.46561
G1 X117.524 Y69.980 E155.59393
G1 X115.445 Y67.901 E155.96398
G1 X116.464 Y67.901 E156.09230
G1 X117.524 Y68.961 E156.28089
G1 X117.524 Y67.941 E156.40921
G1 X117.484 Y67.901 E156.41633
G1 F1800.000 E155.41633
G92 E0
G1 X87.563 Y64.489 F7800.000
G1 E1.00000 F1800.000
G1 X117.524 Y94.450 E6.33266 F576.000
G1 X117.524 Y95.469 E6.46098
G1 X87.376 Y65.322 E11.82683
G1 X87.376 Y66.341 E11.95515
G1 X117.524 Y96.489 E17.32101
G1 X117.524 Y97.509 E17.44932
G1 X87.376 Y67.361 E22.81518
G1 X86.897 Y67.901 E22.90608
G1 X117.524 Y98.528 E28.35723
G1 X117.524 Y99.548 E28.48555
G1 X85.877 Y67.901 E34.11817
G1 X84.858 Y67.901 E34.24648
G1 X117.524 Y100.567 E40.06057
G1 X117.524 Y101.587 E40.18889
G1 X83.838 Y67.901 E46.18445
G1 X82.819 Y67.901 E46.31276
G1 X117.524 Y102.606 E52.48979
G1 X117.524 Y103.626 E52.61810
G1 X81.799 Y67.901 E58.97660
G1 X80.779 Y67.901 E59.10491
G1 X117.524 Y104.646 E65.64487
G1 X117.524 Y105.665 E65.77319
G1 X79.760 Y67.901 E72.49462
G1 X78.740 Y67.901 E72.62294
G1 X117.524 Y106.685 E79.52583
G1 X117.524 Y107.704 E79.65415
G1 X77.721 Y67.901 E86.73851
G1 X76.701 Y67.901 E86.86683
G1 X117.524 Y108.724 E94.13266
G1 X117.524 Y109.743 E94.26098
G1 X75.682 Y67.901 E101.70828
G1 X74.662 Y67.901 E101.83659
G1 X117.524 Y110.763 E109.46536
G1 X117.524 Y111.783 E109.59368
G1 X73.642 Y67.901 E117.40391
G1 X72.623 Y67.901 E117.53223
G1 X117.524 Y112.802 E125.52393
G1 X117.524 Y113.822 E125.65225
G1 X71.603 Y67.901 E133.82542
G1 X70.584 Y67.901 E133.95373
G1 X117.524 Y114.841 E142.30837
G1 X117.524 Y115.861 E142.43669
G1 X69.564 Y67.901 E150.97279
G1 X68.545 Y67.901 E151.10111
G1 X117.524 Y116.880 E159.81868
G1 X117.524 Y117.900 E159.94700
G1 X67.525 Y67.901 E168.84604
G1 X66.505 Y67.901 E168.97436
G1 X116.553 Y117.949 E177.88211
G1 X115.534 Y117.949 E178.01043
G1 X65.486 Y67.901 E186.91818
G1 X64.466 Y67.901 E187.04649
G1 X114.514 Y117.949 E195.95424
G1 X113.495 Y117.949 E196.08256
G1 X63.447 Y67.901 E204.99031
G1 X62.476 Y67.950 E205.11262
G1 X112.475 Y117.949 E214.01166
G1 X111.455 Y117.949 E214.13998
G1 X62.476 Y68.970 E222.85755
G1 X62.476 Y69.989 E222.98587
G1 X110.436 Y117.949 E231.52198
G1 X109.416 Y117.949 E231.65029
G1 X62.476 Y71.009 E240.00493
G1 X62.476 Y72.028 E240.13325
G1 X108.397 Y117.949 E248.30642
G1 X107.377 Y117.949 E248.43474
G1 X62.476 Y73.048 E256.42644
G1 X62.476 Y74.067 E256.55475
G1 X106.358 Y117.949 E264.36499
G1 X105.338 Y117.949 E264.49331
G1 X62.476 Y75.087 E272.12207
G1 X62.476 Y76.107 E272.25039
G1 X104.318 Y117.949 E279.69769
G1 X103.299 Y117.949 E279.82601
G1 X62.476 Y77.126 E287.09184
G1 X62.476 Y78.146 E287.22015
G1 X102.279 Y117.949 E294.30452
G1 X101.260 Y117.949 E294.43283
G1 X62.476 Y79.165 E301.33573
G1 X62.476 Y80.185 E301.46405
G1 X100.240 Y117.949 E308.18547
G1 X99.221 Y117.949 E308.31379
G1 X62.476 Y81.204 E314.85375
G1 X62.476 Y82.224 E314.98207
G1 X98.201 Y117.949 E321.34056
G1 X97.181 Y117.949 E321.46888
G1 X62.476 Y83.244 E327.64590
G1 X62.476 Y84.263 E327.77422
G1 X96.162 Y117.949 E333.76977
G1 X95.142 Y117.949 E333.89809
G1 X62.476 Y85.283 E339.71218
G1 X62.476 Y86.302 E339.84050
G1 X94.123 Y117.949 E345.47312
G1 X93.103 Y117.949 E345.60143
G1 X62.476 Y87.322 E351.05259
G1 X62.476 Y88.341 E351.18091
G1 X92.084 Y117.949 E356.45059
G1 X91.064 Y117.949 E356.57891
G1 X62.476 Y89.361 E361.66712
G1 X62.476 Y90.381 E361.79544
G1 X90.044 Y117.949 E366.70219
G1 X89.025 Y117.949 E366.83051
G1 X62.476 Y91.400 E371.55579
G1 X62.476 Y92.420 E371.68411
G1 X88.005 Y117.949 E376.22792
G1 X86.986 Y117.949 E376.35624
G1 X62.476 Y93.439 E380.71859
G1 X62.476 Y94.459 E380.84690
G1 X85.966 Y117.949 E385.02778
G1 X84.947 Y117.949 E385.15610
G1 X62.476 Y95.478 E389.15551
G1 X62.476 Y96.498 E389.28383
G1 X83.927 Y117.949 E393.10177
G1 X82.907 Y117.949 E393.23009
G1 X62.476 Y97.518 E396.86656
G1 X62.476 Y98.537 E396.99488
G1 X81.888 Y117.949 E400.44989
G1 X80.868 Y117.949 E400.57820
G1 X62.476 Y99.557 E403.85174
G1 X62.476 Y100.576 E403.98006
G1 X79.849 Y117.949 E407.07213
G1 X78.829 Y117.949 E407.20045
G1 X62.476 Y101.596 E410.11105
G1 X62.476 Y102.615 E410.23937
G1 X77.810 Y117.949 E412.96850
G1 X76.790 Y117.949 E413.09682
G1 X62.476 Y103.635 E415.64449
G1 X62.476 Y104.655 E415.77281
G1 X75.770 Y117.949 E418.13901
G1 X74.751 Y117.949 E418.26732
G1 X62.476 Y105.674 E420.45206
G1 X62.476 Y106.694 E420.58037
G1 X73.731 Y117.949 E422.58364
G1 X72.712 Y117.949 E422.71196
G1 X62.476 Y107.713 E424.53375
G1 X62.476 Y108.733 E424.66207
G1 X71.692 Y117.949 E426.30240
G1 X70.673 Y117.949 E426.43072
G1 X62.476 Y109.752 E427.88958
G1 X62.476 Y110.772 E428.01790
G1 X69.653 Y117.949 E429.29529
G1 X68.633 Y117.949 E429.42361
G1 X62.476 Y111.792 E430.51953
G1 X62.476 Y112.811 E430.64785
G1 X67.614 Y117.949 E431.56231
G1 X66.594 Y117.949 E431.69063
G1 X62.476 Y113.831 E432.42362
G1 X62.476 Y114.850 E432.55193
G1 X65.575 Y117.949 E433.10346
G1 X64.555 Y117.949 E433.23177
G1 X62.476 Y115.870 E433.60183
G1 X62.476 Y116.889 E433.73015
G1 X63.536 Y117.949 E433.91873
G1 X62.516 Y117.949 E434.04705
G1 X62.476 Y117.909 E434.05417
G1 X93.256 Y61.152 F7800.000
G1 X92.920 Y60.386 E434.11312 F360.000
G1 X92.230 Y59.395 E434.19826
G1 X91.429 Y58.625 E434.27655
G1 X90.656 Y58.398 F7800.000
G1 X90.050 Y58.434 E434.31933 F360.000
G1 X88.876 Y58.740 E434.40488
G1 X87.758 Y59.283 E434.49248
G1 X87.589 Y59.410 E434.50742
G1 X87.223 Y59.971 F7800.000
G1 X87.106 Y60.356 E434.53580 F360.000
G1 X87.004 Y61.391 E434.60915
M104 S217 ; set temperature
G1 F1800.000 E433.60915
G92 E0
G1 Z0.600 F7800.000
G1 X103.600 Y121.375 F7800.000
G1 E1.00000 F1800.000
G1 X106.400 Y121.375 E1.09869 F1800.000
G1 X106.400 Y122.375 E1.13393
G1 X103.600 Y122.375 E1.23262
G1 X103.600 Y121.435 E1.26575
G1 X103.200 Y120.975 F7800.000
G1 X106.800 Y120.975 E1.39263 F1800.000
G1 X106.800 Y122.775 E1.45608
G1 X103.200 Y122.775 E1.58296
G1 X103.200 Y121.035 E1.64429
G1 X102.800 Y120.575 F7800.000
G1 X107.200 Y120.575 E1.79937 F1260.000
G1 X107.200 Y123.175 E1.89100
G1 X102.800 Y123.175 E2.04608
G1 X102.800 Y120.635 E2.13561
G1 X103.146 Y120.775 F7800.000
G1 X103.800 Y121.875 F7800.000
G1 X106.200 Y121.875 E2.25341 F1200.000
G1 F1800.000 E1.25341
G92 E0
G1 X76.500 Y121.375 F7800.000
G1 E1.00000 F1800.000
G1 X76.500 Y122.375 E1.03525 F1800.000
G1 X73.700 Y122.375 E1.13393
G1 X73.700 Y121.375 E1.16918
G1 X76.440 Y121.375 E1.26575
G1 X76.900 Y120.975 F7800.000
G1 X76.900 Y122.775 E1.32919 F1800.000
G1 X73.300 Y122.775 E1.45608
G1 X73.300 Y120.975 E1.51952
G1 X76.840 Y120.975 E1.64429
G1 X77.300 Y120.575 F7800.000
G1 X77.300 Y123.175 E1.73592 F1260.000
G1 X72.900 Y123.175 E1.89100
G1 X72.900 Y120.575 E1.98264
G1 X77.240 Y120.575 E2.13561
G1 X77.100 Y120.921 F7800.000
G1 X76.300 Y121.875 F7800.000
G1 X73.900 Y121.875 E2.25341 F1200.000
G1 F1800.000 E1.25341
G92 E0
G1 X90.895 Y64.177 F7800.000
G1 E1.00000 F1800.000
G1 X87.836 Y63.183 E1.11336 F1800.000
G1 X87.836 Y59.967 E1.22673
G1 X90.895 Y58.973 E1.34009
G1 X92.786 Y61.575 E1.45346
G1 X90.931 Y64.129 E1.56471
G1 X90.743 Y63.707 F7800.000
G1 X88.236 Y62.893 E1.65759 F1800.000
G1 X88.236 Y60.257 E1.75047
G1 X90.743 Y59.443 E1.84334
G1 X92.292 Y61.575 E1.93622
G1 X90.778 Y63.658 E2.02699
G1 X90.590 Y63.237 F7800.000
G1 X88.636 Y62.602 E2.09938 F1260.000
G1 X88.636 Y60.548 E2.17177
G1 X90.590 Y59.913 E2.24417
G1 X91.797 Y61.575 E2.31656
G1 X90.625 Y63.188 E2.38684
G1 X90.427 Y63.602 F7800.000
G1 X93.950 Y66.575 F7800.000
G1 X118.850 Y66.575 E3.26445 F1800.000
G1 X118.850 Y119.275 E5.12188
G1 X61.150 Y119.275 E7.15554
G1 X61.150 Y66.575 E9.01297
G1 X86.050 Y66.575 E9.89058
G1 X86.050 Y61.925 E10.05448
G1 X86.419 Y60.071 E10.12110
G1 X87.271 Y58.796 E10.17515
G1 X88.546 Y57.944 E10.22920
G1 X90.050 Y57.645 E10.28325
G1 X91.554 Y57.944 E10.33730
G1 X92.829 Y58.796 E10.39136
G1 X93.681 Y60.071 E10.44541
G1 X93.980 Y61.575 E10.49946
G1 X93.950 Y61.728 E10.50495
G1 X93.950 Y66.515 E10.67368
G1 X94.350 Y66.175 F7800.000
G1 X119.250 Y66.175 E11.55129 F1800.000
G1 X119.250 Y119.675 E13.43691
G1 X60.750 Y119.675 E15.49877
G1 X60.750 Y66.175 E17.38440
G1 X85.650 Y66.175 E18.26201
G1 X85.650 Y61.885 E18.41319
G1 X86.042 Y59.915 E18.48401
G1 X86.982 Y58.507 E18.54367
G1 X88.390 Y57.567 E18.60333
G1 X90.050 Y57.237 E18.66299
G1 X91.710 Y57.567 E18.72265
G1 X93.118 Y58.507 E18.78231
G1 X94.058 Y59.915 E18.84197
G1 X94.388 Y61.575 E18.90163
G1 X94.350 Y61.767 E18.90854
G1 X94.350 Y66.115 E19.06178
G1 X94.750 Y65.775 F7800.000
G1 X119.650 Y65.775 E19.93939 F1260.000
G1 X119.650 Y120.075 E21.85321
G1 X60.350 Y120.075 E23.94326
G1 X60.350 Y65.775 E25.85709
G1 X85.250 Y65.775 E26.73470
G1 X85.250 Y61.846 E26.87317
G1 X85.665 Y59.759 E26.94818
G1 X86.694 Y58.219 E27.01345
G1 X88.234 Y57.190 E27.07872
G1 X90.050 Y56.829 E27.14399
G1 X91.866 Y57.190 E27.20926
G1 X93.406 Y58.219 E27.27453
G1 X94.435 Y59.759 E27.33979
G1 X94.796 Y61.575 E27.40506
G1 X94.750 Y61.807 E27.41339
G1 X94.750 Y65.715 E27.55114
G1 X94.750 Y66.175 F7800.000
G1 X91.958 Y63.262 F7800.000
G1 X93.651 Y61.568 E27.68373 F1920.000
G1 X93.629 Y62.485 E27.73448
G1 X61.471 Y94.642 E30.25226
G1 X61.471 Y95.536 E30.30174
G1 X93.629 Y63.378 E32.81951
G1 X93.629 Y64.272 E32.86899
G1 X61.471 Y96.429 E35.38677
G1 X61.471 Y97.323 E35.43625
G1 X93.629 Y65.166 E37.95402
G1 X93.629 Y66.059 E38.00350
G1 X61.471 Y98.217 E40.52127
G1 X61.471 Y99.110 E40.57075
G1 X93.685 Y66.896 E43.09298
G1 X94.579 Y66.896 E43.14246
G1 X61.471 Y100.004 E45.73466
G1 X61.471 Y100.898 E45.78414
G1 X95.473 Y66.896 E48.44631
G1 X96.367 Y66.896 E48.49579
G1 X61.471 Y101.792 E51.22794
G1 X61.471 Y102.685 E51.27742
G1 X97.260 Y66.896 E54.07954
G1 X98.154 Y66.896 E54.12902
G1 X61.471 Y103.579 E57.00112
G1 X61.471 Y104.473 E57.05060
G1 X99.048 Y66.896 E59.99267
G1 X99.942 Y66.896 E60.04215
G1 X61.471 Y105.367 E63.05420
G1 X61.471 Y106.260 E63.10368
G1 X100.835 Y66.896 E66.18570
G1 X101.729 Y66.896 E66.23518
G1 X61.471 Y107.154 E69.38718
G1 X61.471 Y108.048 E69.43666
G1 X102.623 Y66.896 E72.65863
G1 X103.516 Y66.896 E72.70811
G1 X61.471 Y108.941 E76.00006
G1 X61.471 Y109.835 E76.04954
G1 X104.410 Y66.896 E79.41146
G1 X105.304 Y66.896 E79.46094
G1 X61.471 Y110.729 E82.89284
G1 X61.471 Y111.623 E82.94232
G1 X106.198 Y66.896 E86.44419
G1 X107.091 Y66.896 E86.49367
G1 X61.471 Y112.516 E90.06552
G1 X61.471 Y113.410 E90.11500
G1 X107.985 Y66.896 E93.75682
G1 X108.879 Y66.896 E93.80630
G1 X61.471 Y114.304 E97.51809
